X: 39
T:John Stevenson's (2)
M:4/4
L:1/8
C:John Stevenson
S:Ciran Kelly, Moneymore, Derry (Accordian)
R:Reel
D:Session tape - Derrygonelly, Fermanagh 1993
Z:Bernie Stocks
K:D
d3c BAFD | EDFD EDFD | d3c BAFD |1 ABde fdec \
:|2 ABde fdd2 :: faaf defd | ceBe ceBe | faaf dfaf |\
e2Ac edd2| faaf defd | dfce BeAB | d2dB AFED | ABde fdd2:|
<end>
<start>
